storage/app/icons/phosphoricons/thin/eraser-thin.svg

<svg xmlns="http://www.w3.org/2000/svg" fill="currentColor" viewBox="0 0 256 256"><path d="m222.15 83.22-41.38-41.37a20 20 0 0 0-28.28 0L33.85 160.48a20 20 0 0 0 0 28.29l30.06 30.06a4 4 0 0 0 2.83 1.17H216a4 4 0 0 0 0-8h-94.34l100.49-100.49a20 20 0 0 0 0-28.29M110.34 212H68.4l-28.89-28.89a12 12 0 0 1 0-17L96 109.65 154.35 168Zm106.15-106.15L160 162.34 101.65 104l56.49-56.48a12 12 0 0 1 17 0l41.37 41.37a12 12 0 0 1-.02 16.96"/></svg>

<svg xmlns="http://www.w3.org/2000/svg" viewBox="0 0 256 256" fill="currentColor"><path d="M222.15,83.22,180.77,41.85a20,20,0,0,0-28.28,0L33.85,160.48a20,20,0,0,0,0,28.29l30.06,30.06A4,4,0,0,0,66.74,220H216a4,4,0,0,0,0-8H121.66L222.15,111.51A20,20,0,0,0,222.15,83.22ZM110.34,212H68.4L39.51,183.11a12,12,0,0,1,0-17L96,109.65,154.35,168ZM216.49,105.85,160,162.34,101.65,104l56.49-56.48a12,12,0,0,1,17,0l41.37,41.37A12,12,0,0,1,216.49,105.85Z"/></svg>
